X:1
T:Deliverance
L:1/8
M:3/4
I:linebreak $
K:G
V:1 treble 
V:1
|: G3 DGB | A3 DAB | c2 B2 G2 | E6 | E2 G2 A2 | B4 G2 | E2 D4 | D x4 D | G3 DGB | A3 DAB | %10
 c2 B2 G2 | E6 |$ c3 B G2 | G2 A2 F2 | G6 | G6 :: bgfdBG | FD A,2 G,A, | B,3 B,A,B, | ^C3 DCA, | %20
 CB,CDEG |$ FD A,3 G, | GFGABd | ^c2 AB G2 | bgfdBG | FD A,2 G,A, | B,3 B,A,B, | ^C x4 G, | %28
 G3 FGB | A2 G2 F2 |$ G3 AGF | G6 :| %32
